X: 19213
T: Isle Of Aigas, The
R: waltz
M: 3/4
K: Eminor
ef|g2 e2 B2|B4 BA|G2 B3 F|(E4 E)D|E2 A3 G|
A4 B>c|B6|e4 ef|g2 e2 B2|B4 GA|
B2 e3 g|f4 g>f|e2B2G2|A4 GA/G/|F6|E4||
B2|e2 f3 g|f4 e2|b2 a2 f2|e4 B>B|e2 f3 g|
f4 e2|B6|e3 BE/F/|G2 A2 B2|B4 B2|
e2 f3 g|f4 g>f|e2 B3 G|A4 G2|F6|E6|

